X: 31
T: Planxty Irwin
C: Turlough O'Carolan (1670-1738)
M: 3/4 %% X:22 WJ 2015
L: 1/8
K: D
A2 |\
"D"d4 c2 | "G"B3 c d2 | "A"A4 G2 | "D"F3 E D2 |\
"G"G4 E2 | "D"F3 G A2 | "A"C4 D2 | E4 c2 |
"D"d4 c2 | "G"B3 c d2 | "A"A4 G2 | "D"F3 E D2 "^I"|\
"G"G3 F E2 | "D"F3 G A2 | "A"D2 E2 C2 | "D"D4 :|
|: A2 |\
"D"d4 d2 | "G(Bm)"d3 c d2 | "A(Em)"e3 f e2 | "A"e2 c2 A2 |\
"D(Bm)"f4 f2 | "E7"e3 f d2 | "A"c3 d B2 | A2 B2 c2 |
"D(G)"d4 c2 | "G"B3 c d2 | "A"A4 G2 | "D"F3 E D2 "^I"|\
"G"G4 E2 | "D"F3 G A2 | "A"D3 E C2 | "D"D4 :|


